public/assets/images/icons/myapp-shape.svg

<svg xmlns="http://www.w3.org/2000/svg" width="366" height="366" fill="none"><g clip-path="url(#a)"><mask id="b" width="366" height="366" x="0" y="0" maskUnits="userSpaceOnUse" style="mask-type:luminance"><path fill="#fff" d="M366 0H0v366h366z"/></mask><g mask="url(#b)"><path fill="url(#c)" fill-rule="evenodd" d="M0 0c50.534 0 91.5 40.966 91.5 91.5C40.966 91.5 0 50.534 0 0m183 0c-50.534 0-91.5 40.966-91.5 91.5C40.966 91.5 0 132.466 0 183s40.966 91.5 91.5 91.5C40.966 274.5 0 315.466 0 366c50.534 0 91.5-40.966 91.5-91.5 0 50.534 40.966 91.5 91.5 91.5s91.5-40.966 91.5-91.5c0 50.534 40.966 91.5 91.5 91.5 0-50.534-40.966-91.5-91.5-91.5 50.534 0 91.5-40.966 91.5-91.5s-40.966-91.5-91.5-91.5C325.034 91.5 366 50.534 366 0c-50.534 0-91.5 40.966-91.5 91.5C274.5 40.966 233.534 0 183 0m91.5 274.5c0-50.534-40.966-91.5-91.5-91.5 0 50.534 40.966 91.5 91.5 91.5M183 183c50.534 0 91.5-40.966 91.5-91.5 0 50.534 40.966 91.5 91.5 91.5-50.534 0-91.5 40.966-91.5 91.5-50.534 0-91.5 40.966-91.5 91.5 0-50.534-40.966-91.5-91.5-91.5 50.534 0 91.5-40.966 91.5-91.5m0 0c-50.534 0-91.5 40.966-91.5 91.5C91.5 223.966 50.534 183 0 183c50.534 0 91.5-40.966 91.5-91.5 0 50.534 40.966 91.5 91.5 91.5m0 0c0-50.534 40.966-91.5 91.5-91.5C223.966 91.5 183 50.534 183 0c0 50.534-40.966 91.5-91.5 91.5 50.534 0 91.5 40.966 91.5 91.5" clip-rule="evenodd"/></g></g><defs><linearGradient id="c" x1="183" x2="183" y1="0" y2="366" gradientUnits="userSpaceOnUse"><stop stop-color="#B8DBFC"/><stop offset="1" stop-color="#F8FBFE"/></linearGradient><clipPath id="a"><path fill="#fff" d="M0 0h366v366H0z"/></clipPath></defs></svg>

<svg width="366" height="366" viewBox="0 0 366 366" fill="none" xmlns="http://www.w3.org/2000/svg">
<g clip-path="url(#clip0_3989_28214)">
<mask id="mask0_3989_28214" style="mask-type:luminance" maskUnits="userSpaceOnUse" x="0" y="0" width="366" height="366">
<path d="M366 0H0V366H366V0Z" fill="white"/>
</mask>
<g mask="url(#mask0_3989_28214)">
<path fill-rule="evenodd" clip-rule="evenodd" d="M0 0C50.534 0 91.5 40.9658 91.5 91.5C40.966 91.5 0 50.5342 0 0ZM183 0C132.466 0 91.5 40.9658 91.5 91.5C40.966 91.5 0 132.466 0 183C0 233.534 40.966 274.5 91.5 274.5C40.966 274.5 0 315.466 0 366C50.534 366 91.5 325.034 91.5 274.5C91.5 325.034 132.466 366 183 366C233.534 366 274.5 325.034 274.5 274.5C274.5 325.034 315.466 366 366 366C366 315.466 325.034 274.5 274.5 274.5C325.034 274.5 366 233.534 366 183C366 132.466 325.034 91.5 274.5 91.5C325.034 91.5 366 50.5342 366 0C315.466 0 274.5 40.9658 274.5 91.5C274.5 40.9658 233.534 0 183 0ZM274.5 274.5C274.5 223.966 233.534 183 183 183C183 233.534 223.966 274.5 274.5 274.5ZM183 183C233.534 183 274.5 142.034 274.5 91.5C274.5 142.034 315.466 183 366 183C315.466 183 274.5 223.966 274.5 274.5C223.966 274.5 183 315.466 183 366C183 315.466 142.034 274.5 91.5 274.5C142.034 274.5 183 233.534 183 183ZM183 183C132.466 183 91.5 223.966 91.5 274.5C91.5 223.966 50.534 183 0 183C50.534 183 91.5 142.034 91.5 91.5C91.5 142.034 132.466 183 183 183ZM183 183C183 132.466 223.966 91.5 274.5 91.5C223.966 91.5 183 50.5342 183 0C183 50.5342 142.034 91.5 91.5 91.5C142.034 91.5 183 132.466 183 183Z" fill="url(#paint0_linear_3989_28214)"/>
</g>
</g>
<defs>
<linearGradient id="paint0_linear_3989_28214" x1="183" y1="0" x2="183" y2="366" gradientUnits="userSpaceOnUse">
<stop stop-color="#B8DBFC"/>
<stop offset="1" stop-color="#F8FBFE"/>
</linearGradient>
<clipPath id="clip0_3989_28214">
<rect width="366" height="366" fill="white"/>
</clipPath>
</defs>
</svg>
